X: 3266
T: Den laadne Hopsa
B:[[Notböcker/Melodier til gamle danske Almuedanse for Violin solo]]
O:Danmark
Z:Søren Bak Vestergaard
M: 2/4
L: 1/8
K: G
BD GB|BA/B/ c2|AD FA|(.G.B) d2|BD GB|BA/B/ c2|AD FA|G2 G2:|\
|:d2 g2|b3 a|gfed|cB cB|c2 g2|a3 g|fd ef|g2 z2:|
(:musicend:)
(:music:)
